symbols/web/lightbulb_circle/materialsymbolsrounded/lightbulb_circle_wght500fill1_40px.svg

<svg xmlns="http://www.w3.org/2000/svg" height="40" width="40"><path d="M15 23.333h10q1.542-1.125 2.479-2.895.938-1.771.938-3.855 0-3.5-2.459-5.958Q23.5 8.167 20 8.167t-5.958 2.458q-2.459 2.458-2.459 5.958 0 2.084.938 3.855.937 1.77 2.479 2.895Zm.833-2.291q-.916-.917-1.437-2.084-.521-1.166-.521-2.375 0-2.541 1.792-4.333 1.791-1.792 4.333-1.792 2.542 0 4.333 1.792 1.792 1.792 1.792 4.333 0 1.209-.521 2.375-.521 1.167-1.437 2.084Zm.209 6.333h7.916q.459 0 .792-.333.333-.334.333-.792t-.333-.792q-.333-.333-.792-.333h-7.916q-.459 0-.792.333-.333.334-.333.792t.333.792q.333.333.792.333ZM20 31.833q.917 0 1.604-.604.688-.604.771-1.521h-4.75q.125.917.792 1.521.666.604 1.583.604Zm0 5.125q-3.5 0-6.604-1.333T8 32q-2.292-2.292-3.625-5.396Q3.042 23.5 3.042 20t1.333-6.604Q5.708 10.292 8 8t5.396-3.625Q16.5 3.042 20 3.042t6.604 1.333Q29.708 5.708 32 8t3.625 5.396Q36.958 16.5 36.958 20t-1.333 6.604Q34.292 29.708 32 32t-5.396 3.625Q23.5 36.958 20 36.958Z"/></svg>

<svg xmlns="http://www.w3.org/2000/svg" height="40" width="40"><path d="M15 23.333H25Q26.542 22.208 27.479 20.438Q28.417 18.667 28.417 16.583Q28.417 13.083 25.958 10.625Q23.5 8.167 20 8.167Q16.5 8.167 14.042 10.625Q11.583 13.083 11.583 16.583Q11.583 18.667 12.521 20.438Q13.458 22.208 15 23.333ZM15.833 21.042Q14.917 20.125 14.396 18.958Q13.875 17.792 13.875 16.583Q13.875 14.042 15.667 12.25Q17.458 10.458 20 10.458Q22.542 10.458 24.333 12.25Q26.125 14.042 26.125 16.583Q26.125 17.792 25.604 18.958Q25.083 20.125 24.167 21.042ZM16.042 27.375H23.958Q24.417 27.375 24.75 27.042Q25.083 26.708 25.083 26.25Q25.083 25.792 24.75 25.458Q24.417 25.125 23.958 25.125H16.042Q15.583 25.125 15.25 25.458Q14.917 25.792 14.917 26.25Q14.917 26.708 15.25 27.042Q15.583 27.375 16.042 27.375ZM20 31.833Q20.917 31.833 21.604 31.229Q22.292 30.625 22.375 29.708H17.625Q17.75 30.625 18.417 31.229Q19.083 31.833 20 31.833ZM20 36.958Q16.5 36.958 13.396 35.625Q10.292 34.292 8 32Q5.708 29.708 4.375 26.604Q3.042 23.5 3.042 20Q3.042 16.5 4.375 13.396Q5.708 10.292 8 8Q10.292 5.708 13.396 4.375Q16.5 3.042 20 3.042Q23.5 3.042 26.604 4.375Q29.708 5.708 32 8Q34.292 10.292 35.625 13.396Q36.958 16.5 36.958 20Q36.958 23.5 35.625 26.604Q34.292 29.708 32 32Q29.708 34.292 26.604 35.625Q23.5 36.958 20 36.958Z"/></svg>
